X:1
T:Honorable Captain Elliot’s Quick Step
T:Honorable Captain Elliot’s Quick Step
T:John Pringle
C:John Pringle
L:1/8
M:2/4
K:Bb
V:1 treble 
V:1
 F | B2 (c/e/).c/.A/ | Bd{=e} f2 | ec dB | Gc/B/ A/F/G/A/ | B2 c/e/c/A/ | d2 (e/g/).f/.e/ | dB GA | %8
{c} B2 B :: F | AB cA | Ff/e/{e} d2 | Bg f/e/d/c/ | B/A/c/B/ A/G/F/E/ | Dd Ee | Ff Gg | fe/f/ eA | %17
{c} B2 B :| %18

